TO KRUG
  CLEARSCREEN
  PU FD 200 PD
  REPEAT 12 [
    SETPEN REPCOUNT * 21
    SPIRALA
  ]
END

TO SETPEN :BRIGHTNESS
  SETPENCOLOR ( LIST
     255 			; red
     255 - :BRIGHTNESS		; green
     :BRIGHTNESS		; blue
  )
END

TO SPIRALA
  REPEAT 50 [
    FD REPCOUNT RT 90 - REPCOUNT * 2
  ]
END

