SETPENSIZE [2 2]

TO KRUG
  CLEARSCREEN
  PU FD 250 PD
  REPEAT 8 [
    SETPEN REPCOUNT * 21
    SPIRALA
  ]
END

TO SETPEN :BRIGHTNESS
  SETPENCOLOR ( LIST
     255             ; red
     255 - :BRIGHTNESS        ; green
     :BRIGHTNESS        ; blue
  )
END

TO SPIRALA
  MAKE "step 0
  MAKE "angle 1
  REPEAT 50 [
    FD :step RT 90 - :angle
    MAKE "step :step + 1
    MAKE "angle :step * 2
  ]
END

KRUG